**kern
*staff2
*tb16
=1-
*clefG2
*k[b-e-]
*M6/8
8d/L 8f/L
.
8c#/ 8en/
.
8d/J 8f/J
.
8r
.
8r
.
8r
.
=2
8B-/L 8d/L
.
8d/ 8f/
.
8B-/ 8d/
.
8d/ 8f/
.
8c/ 8en/
.
8d/J 8f/J
.
=3
8B-/L 8d/L
.
8d/ 8f/
.
8B-/ 8d/
.
8d/ 8f/
.
8c#/ 8e-/
.
8d/J 8f/J
.
=4
!!linebreak:original
8B-/L 8d/L
.
8d/ 8f/
.
8B-/ 8d/
.
8d/ 8f/
.
8B-/ 8d/
.
8d/J 8f/J
.
=5
8B-/L 8d/L
.
8d/ 8f/
.
8B-/ 8d/
.
8d/ 8f/
.
8B-/ 8d/
.
8d/J 8f/J
.
=6
8B-/L 8e-/L
.
8e-/ 8g/
.
8B-/ 8e-/
.
8e-/ 8g/
.
8c/ 8e-/
.
8e-/J 8g/J
.
=7
4c/ 4e-/ 4a/
.
.
.
8r
.
4r
.
.
.
8f/ 8b-/ 8dd/
.
=8
!!linebreak:original
4f/ 4a/ 4cc/
.
.
.
8r
.
4r
.
.
.
8F/ 8B-/ 8d/
.
=9
4F/ 4A/ 4c/
.
.
.
8r
.
8c/L 8e-/L
.
8c/ 8e-/
.
8c/J 8e-/J
.
=10
8B-/L 8d/L
.
8B-/ 8d/
.
8B-/J 8d/J
.
4B-/ 4e-/
.
.
.
8c/ 8e-/
.
=11
!!linebreak:original
16r
16c/LL
16e-/ 16a/
16c/
16e-/ 16a/
16c/JJ
16r
16c/LL
16e-/ 16a/
16c/
16e-/ 16a/
16c/JJ
=12
16r
16d/LL
16f/ 16b-/
16d/
16f/ 16b-/
16d/JJ
16r
16e-/LL
16a/ 16cc/
16e-/
16a/ 16cc/
16e-/JJ
=13
16r
16f/LL
16b-/ 16dd/
16f/
16b-/ 16dd/
16f/JJ
16r
16f/LL
16b-/ 16dd/
16f/
16b-/ 16dd/
16f/JJ
=14
!!linebreak:original
16r
16f/LL
16a/ 16cc/ 16ee-/
16f/
16a/ 16cc/ 16ee-/
16f/JJ
16r
16f/LL
16a-/ 16b-/ 16dd/
16f/
16a-/ 16b-/ 16dd/
16f/JJ
=15
8g/L 8b-/L 8ee-/L
.
8e-/ 8g/
.
8e-/J 8g/J
.
4.e-/ 4.g/
.
.
.
.
.
=16
4e-/ 4g/ 4cc/
.
.
.
8r
.
4e-/ 4g/ 4cc/
.
.
.
8r
.
=17
!!linebreak:original
8B-/L 8d/L
.
8c/ 8e-/
.
8c/J 8en/J
.
4d/ 4f/
.
.
.
8c/ 8e-/
.
=18
4B-/ 4d/
.
.
.
8r
.
4r
.
.
.
8f/ 8a/ 8cc/
.
=19
4f/ 4b-/ 4dd/
.
.
.
8r
.
4r
.
.
.
(8F/ 8A/ 8c/
.
=20
4F/) 4B-/ 4d/
.
.
.
(8F/ 8A/ 8c/
.
4F/) 4B-/ 4d/
.
.
.
(8F/ 8A/ 8c/
.
=21
4.F/) 4.B-/ 4.d/
.
.
.
.
.
8r
.
4r
.
.
.
=22:|!
8B-/L 8d/L
.
8c/ 8e-/
.
8d/J 8f/J
.
8r
.
4r
.
.
.
=23
!!linebreak:original
8c/L 8e-/L
.
8e-/ 8f/
.
8c/ 8e-/
.
8e-/ 8f/
.
8c/ 8e-/
.
8e-/J 8f/J
.
=24
8B-/L 8d/L
.
8d/ 8f/
.
8B-/ 8d/
.
8d/ 8f/
.
8B-/ 8d/
.
8d/J 8f/J
.
=25
8G/L 8d/L
.
8d/ 8f/
.
8G/ 8d/
.
8d/ 8f/
.
8G/ 8d/
.
8d/J 8f/J
.
=26
8G/L 8c/L
.
8e-/ 8g/
.
8c/ 8e-/
.
8e-/ 8g/
.
8c/ 8e-/
.
8e-/J 8g/J
.
=27
!!linebreak:original
4.c/ 4.e-/ 4.a/
.
.
.
.
.
4.c/ 4.e-/ 4.b-/
.
.
.
.
.
=28
4c/ 4e-/ 4a/
.
.
.
8r
.
4r
.
.
.
8f/ 8b-/ 8dd/
.
=29
4f/ 4a/ 4cc/
.
.
.
8r
.
4r
.
.
.
8F/ 8B-/ 8d/
.
=30
4.F/ 4.A/ 4.c/
.
.
.
.
.
8r
.
8c/L 8f/L 8a/L
.
8c/J 8f/J 8a/J
.
=31
!!linebreak:original
8r
.
8B-/L 8f/L
.
8B-/J 8f/J
.
8r
.
8c/L 8e-/L 8f/L
.
8c/J 8e-/J 8f/J
.
=32
4.B-/ 4.d/ 4.f/
.
.
.
.
.
8r
.
8B-/L 8f/L 8a-/L
.
8B-/J 8f/J 8a-/J
.
=33
4B-/ 4e-/ 4g/
.
.
.
8r
.
8r
.
8Bn/L 8e-/L 8g/L
.
8B/J 8e-/J 8g/J
.
=34
4.c/ 4.e-/ 4.g/
.
.
.
.
.
16r
16c/LL
16e-/ 16a/
16c/
16e-/ 16a/
16c/JJ
=35
!!linebreak:original
16r
16d/LL
16f/ 16b-/
16d/
16f/ 16b-/
16d/JJ
16r
16e-/LL
16a/ 16cc/
16e-/
16a/ 16cc/
16e-/JJ
=36
16r
16f/LL
16b-/ 16dd/
16f/
16b-/ 16dd/
16f/JJ
16r
16f/LL
16b-/ 16dd/
16f/
16b-/ 16dd/
16f/JJ
=37
16r
16f/LL
16a/ 16cc/ 16ee-/
16f/
16a/ 16cc/ 16ee-/
16f/JJ
16r
16f/LL
16a-/ 16b-/ 16dd/
16f/
16a-/ 16b-/ 16dd/
16f/JJ
=38
!!linebreak:original
8g/L 8b-/L 8ee-/L
.
8e-/ 8g/
.
8e-/J 8g/J
.
4.e-/ 4.g/
.
.
.
.
.
=39
4e-/ 4g/ 4cc/
.
.
.
8r
.
4e-/ 4g/ 4cc/
.
.
.
8r
.
=40
8B-/L 8d/L
.
8c/ 8e-/
.
8c/J 8en/J
.
4d/ 4f/
.
.
.
8c/ 8e-/
.
=41
!!linebreak:original
4B-/ 4d/
.
.
.
8r
.
4r
.
.
.
8f/ 8a/ 8cc/
.
=42
4f/ 4b-/ 4dd/
.
.
.
8r
.
4r
.
.
.
8r
.
=43
4.r
.
.
.
.
.
4.r
.
.
.
.
.
=44
4.r
.
.
.
.
.
==
*-
